X:1834
T:Prozakpolska
R:Polska
S:Anton Teljebäck
Z:Anton Teljebäck
M:3/4
L:1/16
K:D
|: e3d cBcd e4 | e2ef g2fd e4 | e3d cBcd e2c2 | c2BA GABG E4 | 
E2)ed cBcd e2ef | g2fg a2g2 e2d2 | cdcA BAGB cdcB | ABcd efga gfed :| cdcA B2G2 A2z2 ||
|:cdcA BAcd cABG | cdFE cdcA BAcd | efga gfed cded | cdcA BAcd cABG | cdFE cdcA BAcd | efga gfed cded :| cdcA B2G2 A2z2 |

(:musicend:)
(:music:)
